build/images/g17.svg

<svg width="138" height="138" viewBox="0 0 138 138" fill="none" xmlns="http://www.w3.org/2000/svg">
<circle cx="69" cy="69" r="69" fill="#76BD5E"/>
<path d="M110.84 99.5775L105.287 80.0156V37.4219C105.287 35.7971 103.974 34.4844 102.349 34.4844H37.7241C36.0993 34.4844 34.7866 35.7971 34.7866 37.4219V80.0156L29.2329 99.5775C28.5444 101.496 29.9581 103.516 31.996 103.516H108.077C110.115 103.516 111.529 101.496 110.84 99.5775ZM41.396 41.0938H98.6772V77.3535H41.396V41.0938ZM62.3532 96.9062L63.0967 93.5098H76.8938L77.6374 96.9062H62.3532ZM82.9157 96.9062L81.1624 88.9475C81.0889 88.6078 80.786 88.3691 80.4464 88.3691H59.5534C59.2046 88.3691 58.9108 88.6078 58.8374 88.9475L57.084 96.9062H36.8612L40.7442 83.2285H99.329L103.212 96.9062H82.9157Z" fill="white"/>
</svg>

<svg width="138" height="138" fill="none" xmlns="http://www.w3.org/2000/svg"><circle cx="69" cy="69" r="69" fill="#76BD5E"/><path d="M110.84 99.578l-5.553-19.562V37.422a2.935 2.935 0 00-2.938-2.938H37.724a2.934 2.934 0 00-2.937 2.938v42.594l-5.554 19.561c-.689 1.919.725 3.939 2.763 3.939h76.081c2.038 0 3.452-2.02 2.763-3.939zM41.396 41.093h57.281v36.26H41.396v-36.26zm20.957 55.812l.744-3.396h13.797l.743 3.396H62.353zm20.563 0l-1.754-7.959a.735.735 0 00-.716-.578H59.553a.728.728 0 00-.716.579l-1.753 7.958H36.861l3.883-13.678H99.33l3.883 13.678H82.916z" fill="#fff"/></svg>
